X:1
T:Sit tibi laus
T:Sit tibi laus
T:Sigismondo d'India
C:Sigismondo d'India
%%score [ 1 2 3 ] 4
L:1/8
Q:1/4=75
M:4/4
K:C
V:1 treble nm="Alto" snm="A"
V:2 treble-8 nm="Tenor" snm="T"
V:3 bass nm="Bass" snm="B"
V:4 bass nm="Basso C." snm="B.C."
V:1
 G6 E2 | E2 C4 B,A, | B, B,2 A, G,4- | G,2 G2 G2 ^F2 | G4 z4 | B,3 B, EE A,>A, | B,2 D4 CD | %7
w: Sit ti-|bi la- * *|us san- cta De-|* i Ma- *|ter|per te e- nim Tri- ni-|tas san- cti- fi-|
 ED/C/ D2 E4 | A,4 B,2 G,2- | G,2 GF E2 A2 | E6 ^F2 | D2 B,A, ^G,2 A,2 | z2 A,2 B,2 G,2 | %13
w: ca- * * * tur,|per te crux|* pre- ti- o- sa,|per te|crux pre- ti- o- sa,|per te crux|
 A,G, ^F,4 G,2 | D2 E2 D2 GF | E2 ^F2 G2 A2 | G2 ^F2 E>F G2- | G2 F2 E2 D2- | D2 ^C2 D4 | %19
w: pre- ti- o- sa,|per te crux pre- ti-|o- sa di- ci-|tur et a- * *|* do- ra- tur,|* per te,|
 z2 A,2 F4 | z2 C2 E4- | E2 DC F4 | z2 z G F/E/F/G/ AG | G2 F D2 C2 F |[M:2/4] G2 A2 | %25
w: per te,|per te||ex- ul- * * * * tant|coe- li, ex- ul- tant|coe- li,|
[M:3/4][Q:1/4=120] A2 F2 D2 | E3 E E2 | E2 A2 ^F2 | G3 G G2 |[M:4/4][Q:1/4=75] z8 | z8 | %31
w: lae- tan- tur|An- ge- li,|lae- tan- tur|An- ge- li,|||
 z2 z D C/B,/C/A,/ B,/C/D/E/ | DG G/F<EF/4G/4A>G^F | z2 D>C B,3/2C/4D/4 E>E | %34
w: fu- gan- * * * * * * *|* tur Dae- * * * * * mo- nes,|Dae- * * * * * mo-|
 A,2 D>C B,/A,<B,C/4D/4E- | E/D/C/B,/ A,A>GF/E/ DC/B,/ | A,>A, B,2 z2 C2- | C2 F4 E2 | z2 E2 A4 | %39
w: nes, Dae- * * * * * * *||* mo- nes, et|* ho- mo.|et ho-|
 G4 z2 A2 | G2 F2 E3 F | GE A2 G2 E2 | B,2 A,2 G,2 C2 | A,3 F G2 FE | D4 E4 | D4 C2 B,2 | %46
w: mo ip-|se ad coe- *|* * * lum, ip-|se ad coe- lum|re- vo- ca- * *|* tur,|ip- se ad|
 A,2 F2 E2 D2 | C4 G2 F2 | E2 A2 F2 D2 | E3 D/C/ G4 | C4 z4 | z4 z2 C2- | C2 F4 E2 | z2 E2 A4 | %54
w: coe- lum re- vo-|ca- tur, ad|coe- lum, re- vo-|ca- * * *|tur,|et|* ho- mo,|et ho-|
 G4 A4 | z2 ^FA>G F2 E | GE A2 G2 z C | EDFE G E2 C- | C A,2 D B,G>FE | D4 C2 G2- | GE A3 G G2- | %61
w: * mo|ip- se ad coe- lum|re- vo- ca- tur, ip-|se ad coe- lum re- vo- ca-|* tur, re- vo- ca- * *|* tur, re-|* vo- ca- * *|
 G2 ^F2 G4- | G8 |] %63
w: * * tur.||
V:2
 z4 e4 | c2 e2 d2 d2 | d2 c2 B4- | B2 d2 A4 | B4 z2 d2- | dded ^c>c d2- | d2 G2 AB c2- | %7
w: Sit|ti- bi la- us|san- cta De-|* i Ma-|ter per|* te e- nim Tri- ni- tas|* san- cti- fi- ca-|
 c2 B2 z2 c2- | c2 d4 B2- | B2 ed ^c2 d2 | z2 G2 A4 | B2 dc B2 e2 | AG ^F2 G2 z2 | c4 d4 | B6 ed | %15
w: * tur, per|* te crux|* pre- ti- o- sa,|per te|crux pre- ti- o- sa,|pre- ti- o- sa,|per te|crux pre- ti-|
 c2 d2 e4- | e2 d2 c2 B/A/B/G/ | A6 F2 | E4 D4 | z4 z2 c2 | e4 z2 c2 | A8 | z c B/A/B/c/ d>B e2 | %23
w: o- sa di-|* ci- tur et * * *|a- do-|ra- tur,|per|te, per|te,|ex- ul- * * * * tant coe-|
 ce d/c/d/e/ f2 ef- |[M:2/4] fe f2 |[M:3/4] c2 d2 B2 | c3 c c2 | G2 c2 A2 | B3 B B2 | %29
w: li, ex- ul- * * * * tant coe-|* * li,|lae- tan- tur|An- ge- li,|lae- tan- tur|An- ge- li,|
[M:4/4] z d B/c/d/B/ c/A/B/c/4B/4 A/B/c/B/ | A/G/A/B/4A/4 G/A/B/A/ G/^F/G/A/4G/4 F/G/A/G/ | %31
w: fu- gan- * * * * * * * * * * * *||
 D/E/^F/G/ E/F/ G2 F G2 | B>A G3/2A/4B/4 ^c>c dA- | A/G<^FG/4A/4B>B E2 c- | %34
w: * * * * * * * * tur|Dae- * * * * * mo- nes, Dae-|* * * * * * mo- nes, Dae-|
 c/B/A/G/ F/E/D d>c B/A/G/F/ | Ee>dc/B/ A>E G2- | G^F G2 z2 E2 | A4 G4 | z2 c4 f2- | f2 e2 f2 z F | %40
w: ||* mo- nes, et|ho- mo.|et ho-|* * mo ip-|
 GABA c/B/c/d/ eA | Bcdc e/d/e/f/ gc | defe g e2 c- | cA d3 c c2- | c2 B2 c4 | z2 z G EFGd | %46
w: se ad coe- lum re- * * * * vo-|ca- * tur, ad coe- * * * * *|lum, ip- se ad coe- lum re-|* vo- ca- * *|* * tur,|ip- se ad coe- lum|
 c>B cd>cA BA | fe/d/ ed/c/ e2 dc | g c2 A d3 B | G2 A2 e2 d2 | e>d c4 B2 | c4 z2 G2 | A4 G4 | %53
w: re- vo- ca- * * * tur, ad|coe- * * * * * * * *|* lum, ad coe- lum|re- vo- ca- *||tur, et|ho- mo,|
 z2 c4 f2- | f2 e2 f2 z F | GABA cd>cA | Bcdc e/f/g/f/ e/d/c- | c/B<dc/e/d/ e/c<gf/e | %58
w: et ho-|* * mo ip-|se ad coe- * lum re- vo- ca-|* * tur, ad coe- * * * * * *||
 Af>d B2 G A/B/c- | cB/A/ B2 c4 | e3 c d2 cB | A4 B4- | B8 |] %63
w: lum re- * * vo- ca- * *|* * * * tur,|re- vo- ca- * *|* tur.||
V:3
 z4 C4 | A,2 C2 G,2 G,2 | G,6 F,2 | E,2 B,,2 D,4 | G,,8 | G,3 G, A,G, ^F,>F, | G,2 G,2 D,2 A,2 | %7
w: Sit|ti- bi la- us|san- cta|De- i Ma-|ter|per te e- nim Tri- ni-|tas san- cti- fi-|
 G,4 C,4 | F,4 G,4 | E,4 A,G, ^F,2 | G,2 C,4 D,2 | z2 B,,2 E,D, ^C,2 | D,2 D,C, B,,2 C,2 | %13
w: ca- tur,|per te|crux pre- ti- o-|sa, per te|crux pre- ti- o-|sa, pre- ti- o- sa,|
 A,,4 B,,4 | G,,4 G,F, E,2 | A,2 D,4 C,2 | B,,4 E,4 | ^C,2 D,2 A,,4- | A,,4 D,4- | D,4 z2 A,,2 | %20
w: per te|crux pre- ti- o-|sa di- ci-|tur et|a- do- ra-|* tur,|* per|
 C,4 z2 A,,2 | F,4 z2 F,2 | E,/D,/E,/F,/ G,E, z D, C,/B,,/C,/D,/ | E,C,zG, F,/E,/F,/G,/ A,F, | %24
w: te, per|te, ex-|ul- * * * * tant ex- ul- * * *|* tant ex- ul- * * * * tant|
[M:2/4] C2 F,2 |[M:3/4] F,2 D,2 G,2 | C,3 C, C,2 | C,2 A,,2 D,2 | G,,3 G,, G,,2 | %29
w: coe- li,|lae- tan- tur|An- ge- li,|lae- tan- tur|An- ge- li,|
[M:4/4] z3 G, E,/F,/G,/E,/ F,/E,/E,/D,/4C,/4 | %30
w: fu- gan- * * * * * * * *|
 D,/E,/F,/D,/ E,/D,/D,/C,/4B,,/4 C,/D,/E,/C,/ D,/C,/C,/B,,/4A,,/4 | %31
w: |
 B,,/C,/D,/B,,/ C,/B,,/B,,/A,,/4G,,/4 A,,2 G,,2 | G,>F, E,3/2F,/4G,/4 A,>A, ^F,2 | %33
w: * * * * * * * * * * tur|Dae- * * * * * mo- nes,|
 D,>C, B,,3/2C,/4D,/4 E,>D, C,2 | F,>E, D,/C,/B,,/A,,/ G,,G,- G,/F,/E,/D,/ | %35
w: Dae- * * * * * mo- nes,|Dae- * * * * * * * * * * *|
 C,/B,,/A,, A,>G, F,/E,/D,/C,/ B,,A,,/G,,/ | D,>D, G,,2 z2 C,2 | F,,4 C,4 | z2 C,2 F,4 | %39
w: |* mo- nes, et|ho- mo.|et ho-|
 C,4 z2 F,2 | C,C, D,2 A,,2 A,2 | E,E, F,2 C,2 C2 | G,2 A,2 E,2 A,2 | F,2 D,2 E,2 D,C, | G,4 C,4 | %45
w: mo ip-|se ad coe- lum, ip-|se ad coe- lum, ip-|se ad coe- lum|re- vo- ca- * *|* tur,|
 z2 G,2 C,D,E,D, | F,/E,/F,/G,/ A,D, E,F,G,F, | A,/G,/A,/B,/ CF, G,A,_B,A, | C2 F,2- F,D, G,2- | %49
w: ip- se ad coe- lum|re- * * * * vo- ca- * tur, ad|coe- * * * * * lum, ip- se ad|coe- lum * ad coe-|
 G,E, C4 B,2 | A,2 E,2 D,2 G,2 | z4 C,4 | F,,4 C,4 | z2 C,2 F,4 | C,4 z2 F,2 | C,C, D,2 A,,2 A,2 | %56
w: * * * lum|re- vo- ca- tur,|et|ho- mo,|et ho-|mo ip-|se ad coe- lum, ip-|
 E,E, F,2 C,2 C2 | G,2 A,2 E,2 A,2 | F,2 D,2 E,2 D,C, | F,2 G,2 z4 | C,3 A,, B,,2 A,,G,, | %61
w: se ad coe- lum, ip-|se ad coe- lum|re- vo- ca- * *|* tur,|re- vo- ca- * *|
 D,4 G,,4- | G,,8 |] %63
w: * tur.||
V:4
 G,4 C4 | A,2 C2 G,4"^3" | G,6 F,2 | E,2 B,,2 D,4"^#" | G,,8 | G,2 G,G, A,G, ^F,>F, | %6
w: |* * 4||* * 11||* * * # * * *|
 G,2 G,2 D,2 A,2 | G,4"^3" C,4 | F,2 F,2 G,4 | E,4 A,G, ^F,2 | G,2 C,2 C,2 D,2 | %11
w: |4 *|* 6 *||* * 6 *|
 G,2 B,,2 E,D, ^C,2 | D,2 D,C, B,,2 C,2 | A,,2 A,,2 B,,2 B,,2 | G,,2 G,,2 G,F, E,2 | %15
w: ||* 6# * *|* 6 * * *|
 A,2 D,2 D,2 C,2 | B,,4"^10" E,2 E,2 | ^C,2 D,2 A,,4- | A,,4"^#" D,4- | D,4 D,2 A,,2 | C,6 A,,2 | %21
w: * # * 6|11 6 *|||||
 F,4"^6" D,2 F,2 | E,>F, G,E, D,2 C,>D, | E,C,D,G, F,>G, A,F, |[M:2/4] C,2 F,2 | %25
w: 7 * *||||
[M:3/4] F,2 D,2 G,2 | C,3 C, C,2 | C,2 A,,2 D,2 | G,,3 G,, G,,2 | %29
w: ||||
[M:4/4] G,,3 G, E,/F,/G,/E,/ F,/E,/E,/D,/4C,/4 | %30
w: * * 6 * * 6 * * 6 * *|
 D,/E,/F,/D,/ E,/D,/D,/C,/4B,,/4 C,/D,/E,/C,/ D,/C,/C,/B,,/4A,,/4 | %31
w: * * * 6 * * 6 * * * * * 6 * 6 6 * *|
 B,,/C,/D,/B,,/ C,/B,,/B,,/A,,/4G,,/4 A,,2"^6#" G,,2 | G,>F, E,3/2F,/4G,/4 A,>A, ^F,2 | %33
w: * * * * * * * * * 7 *||
 D,>C, B,,3/2C,/4D,/4 E,>D, C,2 | F,>E, D,/C,/B,,/A,,/ G,,G,>F,E,/D,/ | %35
w: ||
 C,/B,,/A,, A,>G, F,/E,/D,/C,/ B,,2 | D,2"^3" G,,2 C,4 | F,,4 C,4"^10" | z2 C,2 F,,4 | %39
w: |4 * *|* 11||
 C,4"^10" F,2 F,2 | C,2 D,D, A,,2 A,2 | E,2 F,F, C,2 C2 | G,G,A,A, E,2 A,2 | F,2 D,2 E,2"^6" D,C, | %44
w: 11 * *||||* * 7 * *|
 G,4"^3" C,4 | G,,2 G,2 C,D,E,D, | F,>G, A,D, E,F,G,F, | A,>B, CF, G,A,_B,A, | C2 F,2 F,D, G,2 | %49
w: 4 *|* * * * * 6|* * * * * * * 6|* * * 6 6 * * 6|* * 6 * *|
 G,E, C4 B,2 | A,2 E,2 D,2 G,2 | C,4 C,4 | F,,4 C,4"^10" | z2 C,2 F,,4 | C,4"^10" F,,2 F,2 | %55
w: 6 * * *|* 6 * *||* 11||11 * *|
 C,C,D,D, A,,3 A,, | E,E,F,F, C,2 C2 | G,"^3"G,A,A, E,2 A,2 | F,2 D,2 E,2 D,C, | F,2 G,2 C4 | %60
w: * * 6 * * *|* 6 6 * * *|4 * 4 * * *|||
 C,2 C,A,, B,,2 A,,G,, | D,4"^#" G,,4- | G,,8 |] %63
w: * 6 * * * *|11 *||

